sources/images/icons/ytb-music.svg

<svg width="176" height="176" viewBox="0 0 176 176" fill="none" xmlns="http://www.w3.org/2000/svg">
<path d="M88 0C136.601 0 176 39.3989 176 88C176 136.601 136.601 176 88 176C39.3989 176 0 136.601 0 88C0 39.3989 39.3989 0 88 0ZM88 37.5C60.3913 37.5 38 60.1152 38 88C38 115.885 60.3913 138.5 88 138.5C115.609 138.5 138 115.885 138 88C138 60.1152 115.609 37.5 88 37.5ZM88 46C111.1 46 130 64.8 130 88C130 111.2 111.2 130 88 130C64.8 130 46 111.2 46 88C46 64.8 64.9 46 88 46ZM72 111L111 87L72 65V111Z" fill="black"/>
</svg>

<svg xmlns="http://www.w3.org/2000/svg" width="176" height="176" fill="none" viewBox="0 0 176 176"><path fill="#000" d="M88 0a88 88 0 1 1 0 176A88 88 0 0 1 88 0m0 37.5c-27.6 0-50 22.6-50 50.5s22.4 50.5 50 50.5 50-22.6 50-50.5-22.4-50.5-50-50.5m0 8.5a42 42 0 1 1-.1 84.1A42 42 0 0 1 88 46m-16 65 39-24-39-22z"/></svg>
